X:1
T:[ID 9-58]
T:[ID 9-58]
T:Bezeichnung standardisiert: Percadina Percadina
T:Urheber unbekannt Datum in der hier transkribierten schriftlichen Quelle: 1796
C:Urheber unbekannt
C:Datum in der hier transkribierten schriftlichen Quelle: 1796
L:1/8
M:2/4
K:G
V:1 treble 
V:1
 GG/D/ GG/D/ | GG A2 | BG/B/ dg/d/ | cB A2 | GG/D/ GG/D/ | GG A2 | BG/B/ dg/c/ | BA G2 :| B>AGG | %9
 d>cBB | A/B/c/A/ GA | GFED | B>AGG | d>cBB | d/e/f/g/ f/e/d/c/ | BA G2 | GG/D/ GG/D/ | GG A2 | %18
 BG/B/ dg/d/ | cB A2 | GG/D/ GG/D/ | GG A2 | BG/B/ dg/c/ | BA G2 |: B>AGG | d>cBB | A/B/c/A/ GA | %27
 GFED | B>AGG | d>cBB | d/e/f/g/ f/e/d/c/ | BA G2 :| GGAA | BBAA | GG AA | Bd/B/ A2 | GG AA | %37
 BBAA | B/G/c/A/ dd/c/ | BA G2 |] %40

